!!!!SEGMENT: pl-sa--554-a-ix-34--004_anonim--preludium.krn
!!!cenid: 18xx:567
!!!COM: Anonim
!!!COM-rismid: pe30004985
!!!CDT:
!!!CNT:
!!!OTL: Preludium
!!!PDT:
!!!AGN: Secular; Prelude
!!!SMS-siglum: PL-SA
!!!SMS-shelfmark: 554/A IX 34
!!!SMS-shelfwork: 004 W
!!!SMS-variant:
!!!SMS-altvar:
!!!NIFC-rismid: 1001069596
!!!system-decoration: {(s1,s2)}
**kern	**kern
*part1	*part1
*staff2	*staff1
*	*I"Piano
*clefF4	*clefC1
*k[]	*k[]
*M4/4	*M4/4
*met(c)	*met(c)
=1	=1
*	*^
*2\right	*2\right	*
!	!LO:TX:a:Bi:t=Preludium:problem:'Preludium' po lewej stronie systemu	!
!	!LO:TX:a:t=P:note position:problem	!
2c 2G 2E 2C\	4cc/	2g 2e\
.	4b-X/	.
2c 2A 2F\	2cc 2a/	4f\
.	.	4e-X\
=2	=2	=2
!	!LO:TX:a:t=P:note position:problem	!
2B-X 2BB-X\	4b-X/	2f 2d\
.	4a-X/	.
!	!	!LO:TX:a:t=P:note position:problem
2B- 2G 2E-X\	2b- 2g/	4e-X\
.	.	4d-X\
=3	=3	=3
!	!LO:TX:a:t=P:note position:problem	!
2A-X 2E-X 2C\	4a-X/	2e-X 2c\
.	4g-X/	.
!	!LO:TX:a:t=P:note position:problem	!
2d-X 2D-X\	4dd-X/	2a-X 2f\
.	4bn/	.
=4	=4	=4
!	!	!LO:TX:a:t=P:note position:problem
!LO:SIC:n=1:s=2d:v	!	!
2e-X 2B-X 2G-X\	2dd-X 2b-X/	4g-X\
.	.	4en\
!	!LO:TX:a:t=P:note position:problem	!
2B- 2F#X 2D#X 2BB\	4bn/	2f#X 2d#X\
.	4a/	.
=5	=5	=5
!	!	!LO:TX:a:t=P:note position:problem
2B 2G#X 2E\	2b 2g#X/	4e\
.	.	4d\
!	!LO:TX:a:t=P:note position:problem	!
2A 2E 2C#X 2AA\	4a/	2e 2c#X\
.	4g#/	.
!!LO:LB:g=original
=6	=6	=6
!	!	!LO:TX:a:t=P:note position:problem
2A 2F#X 2D\	2a 2f#X/	4d/
.	.	4c\
!	!LO:TX:a:t=P:note position:problem	!
2G 2D 2BB 2GG\	4g/	2d 2B\
.	4f#/	.
=7	=7	=7
!	!LO:TX:a:t=P:note position:problem	!
2E 2C 2GG 2EE 2CC/	4cc/	2e\
.	4g/	.
!	!LO:TX:a:t=P:note position:problem	!
2F 2FF/	4a/	2f\
.	4cc/	.
*	*v	*v
=8	=8
!	!LO:SIC:n=2:s=2g:v
2G\	2cc 2a 2e\
2GG/	2b 2g 2f 2d\
=9	=9
1C 1CC	1cc 1g 1e
==	==
*-	*-
!!title: @{OTL};
!!!RDF**kern: > = above
!!!RDF**kern: < = below
!!!EED: Wojciech Jakubiak-Danek
!!!EST: 2020-12-13
!!!URL-scan: http://bc.bdsandomierz.pl/dlibra/publication/1310/edition/1278/content
!!!ONB-nifc: Str. 2, s. 4-5
!!!ENC: Mateusz Solarz
!!!END: 2020-06-18
